icons/e.svg

<svg width="48" height="48" viewBox="0 0 48 48" fill="none" xmlns="http://www.w3.org/2000/svg">
<path fill-rule="evenodd" clip-rule="evenodd" d="M15 12C15 10.3431 16.3431 9 18 9H30C31.6569 9 33 10.3431 33 12C33 13.6569 31.6569 15 30 15H21V21H30C31.6569 21 33 22.3431 33 24C33 25.6569 31.6569 27 30 27H21V33H30C31.6569 33 33 34.3431 33 36C33 37.6569 31.6569 39 30 39H18C16.3431 39 15 37.6569 15 36V12ZM18 11C17.4477 11 17 11.4477 17 12V36C17 36.5523 17.4477 37 18 37H30C30.5523 37 31 36.5523 31 36C31 35.4477 30.5523 35 30 35H20C19.4477 35 19 34.5523 19 34V26C19 25.4477 19.4477 25 20 25H30C30.5523 25 31 24.5523 31 24C31 23.4477 30.5523 23 30 23H20C19.4477 23 19 22.5523 19 22V14C19 13.4477 19.4477 13 20 13H30C30.5523 13 31 12.5523 31 12C31 11.4477 30.5523 11 30 11H18Z" fill="black"/>
</svg>

<svg
  xmlns="http://www.w3.org/2000/svg"
  width="24"
  height="24"
  viewBox="0 0 24 24"
  fill="none"
  stroke="currentColor"
  stroke-width="2"
  stroke-linecap="round"
  stroke-linejoin="round"
>
  <path
    fill-rule="evenodd"
    d="M15 12a3 3 0 0 1 3-3h12a3 3 0 1 1 0 6h-9v6h9a3 3 0 1 1 0 6h-9v6h9a3 3 0 1 1 0 6H18a3 3 0 0 1-3-3zm3-1a1 1 0 0 0-1 1v24a1 1 0 0 0 1 1h12a1 1 0 1 0 0-2H20a1 1 0 0 1-1-1v-8a1 1 0 0 1 1-1h10a1 1 0 1 0 0-2H20a1 1 0 0 1-1-1v-8a1 1 0 0 1 1-1h10a1 1 0 1 0 0-2z"
    clip-rule="evenodd"
  />
</svg>
